app/assets/images/heroicons/solid/percent-badge.svg

<svg width="24" height="24" viewBox="0 0 24 24" fill="none" xmlns="http://www.w3.org/2000/svg">
<path fill-rule="evenodd" clip-rule="evenodd" d="M11.9896 2.24316C10.6329 2.24316 9.41666 2.84416 8.5925 3.79207C7.3395 3.70461 6.05453 4.13977 5.09522 5.09919C4.1359 6.05862 3.70081 7.34372 3.78827 8.59683C2.84057 9.42108 2.23975 10.6374 2.23975 11.9941C2.23975 13.3507 2.84051 14.5669 3.78813 15.3912C3.70057 16.6444 4.13564 17.9296 5.09505 18.8891C6.05445 19.8487 7.33955 20.2838 8.59266 20.1962C9.41681 21.1441 10.633 21.745 11.9896 21.745C13.3463 21.745 14.5625 21.144 15.3866 20.1961C16.6395 20.2834 17.9243 19.8483 18.8836 18.8889C19.8428 17.9296 20.2779 16.6446 20.1905 15.3916C21.1384 14.5674 21.7394 13.3509 21.7394 11.9941C21.7394 10.6375 21.1387 9.42121 20.191 8.59697C20.2786 7.34376 19.8435 6.05853 18.8841 5.09903C17.9247 4.13952 16.6396 3.70437 15.3865 3.79193C14.5624 2.8441 13.3462 2.24316 11.9896 2.24316ZM15.52 9.52295C15.8129 9.23003 15.8128 8.75513 15.5199 8.46223C15.227 8.16934 14.7521 8.16936 14.4593 8.46228L8.45937 14.4629C8.16648 14.7558 8.1665 15.2307 8.45941 15.5236C8.75233 15.8165 9.22721 15.8164 9.5201 15.5235L15.52 9.52295ZM9.73972 8.61761C9.11833 8.61761 8.61471 9.12139 8.61471 9.74269C8.61471 10.364 9.11833 10.8678 9.73972 10.8678C10.3611 10.8678 10.8647 10.364 10.8647 9.74269C10.8647 9.12139 10.3611 8.61761 9.73972 8.61761ZM14.2396 13.118C13.6182 13.118 13.1146 13.6218 13.1146 14.2431C13.1146 14.8644 13.6182 15.3682 14.2396 15.3682C14.861 15.3682 15.3646 14.8644 15.3646 14.2431C15.3646 13.6218 14.861 13.118 14.2396 13.118Z" fill="black"/>
</svg>

<svg xmlns="http://www.w3.org/2000/svg" viewBox="0 0 24 24" fill="currentColor" aria-hidden="true" data-slot="icon">
  <path fill-rule="evenodd" d="M11.99 2.243a4.49 4.49 0 0 0-3.398 1.55 4.49 4.49 0 0 0-3.497 1.306 4.491 4.491 0 0 0-1.307 3.498 4.491 4.491 0 0 0-1.548 3.397c0 1.357.6 2.573 1.548 3.397a4.491 4.491 0 0 0 1.307 3.498 4.49 4.49 0 0 0 3.498 1.307 4.49 4.49 0 0 0 3.397 1.549 4.49 4.49 0 0 0 3.397-1.549 4.49 4.49 0 0 0 3.497-1.307 4.491 4.491 0 0 0 1.306-3.497 4.491 4.491 0 0 0 1.55-3.398c0-1.357-.601-2.573-1.549-3.397a4.491 4.491 0 0 0-1.307-3.498 4.49 4.49 0 0 0-3.498-1.307 4.49 4.49 0 0 0-3.396-1.549Zm3.53 7.28a.75.75 0 0 0-1.06-1.06l-6 6a.75.75 0 1 0 1.06 1.06l6-6Zm-5.78-.905a1.125 1.125 0 1 0 0 2.25 1.125 1.125 0 0 0 0-2.25Zm4.5 4.5a1.125 1.125 0 1 0 0 2.25 1.125 1.125 0 0 0 0-2.25Z" clip-rule="evenodd"/>
</svg>
